styles/5/Numix/32/places/brown-folder-pictures.svg

<?xml version="1.0" encoding="UTF-8" standalone="no"?>
<!-- Created with Inkscape (http://www.inkscape.org/) -->

<svg
   xmlns:dc="http://purl.org/dc/elements/1.1/"
   xmlns:cc="http://creativecommons.org/ns#"
   xmlns:rdf="http://www.w3.org/1999/02/22-rdf-syntax-ns#"
   xmlns:svg="http://www.w3.org/2000/svg"
   xmlns="http://www.w3.org/2000/svg"
   xmlns:xlink="http://www.w3.org/1999/xlink"
   xmlns:sodipodi="http://sodipodi.sourceforge.net/DTD/sodipodi-0.dtd"
   xmlns:inkscape="http://www.inkscape.org/namespaces/inkscape"
   width="32"
   height="32"
   id="svg2"
   version="1.1"
   inkscape:version="0.91 r"
   sodipodi:docname="brown-folder-pictures.svg">
  <defs
     id="defs4">
    <linearGradient
       id="linearGradient3886-9-3">
      <stop
         style="stop-color:#000000;stop-opacity:1;"
         offset="0"
         id="stop3888-3-4" />
      <stop
         style="stop-color:#000000;stop-opacity:0.19607843;"
         offset="1"
         id="stop3890-7-8" />
    </linearGradient>
    <radialGradient
       r="24"
       fy="40.5"
       fx="24"
       cy="40.5"
       cx="24"
       gradientTransform="matrix(0.83333334,0,0,0.13888885,-4,1041.4039)"
       gradientUnits="userSpaceOnUse"
       id="radialGradient3053"
       xlink:href="#linearGradient3886-9-3"
       inkscape:collect="always" />
  </defs>
  <sodipodi:namedview
     id="base"
     pagecolor="#ffffff"
     bordercolor="#666666"
     borderopacity="1.0"
     inkscape:pageopacity="0.0"
     inkscape:pageshadow="2"
     inkscape:zoom="16"
     inkscape:cx="15.635939"
     inkscape:cy="17.992273"
     inkscape:document-units="px"
     inkscape:current-layer="layer1"
     showgrid="true"
     inkscape:window-width="1280"
     inkscape:window-height="998"
     inkscape:window-x="0"
     inkscape:window-y="0"
     inkscape:window-maximized="1">
    <inkscape:grid
       type="xygrid"
       id="grid2990"
       empspacing="5"
       visible="true"
       enabled="true"
       snapvisiblegridlinesonly="true" />
  </sodipodi:namedview>
  <metadata
     id="metadata7">
    <rdf:RDF>
      <cc:Work
         rdf:about="">
        <dc:format>image/svg+xml</dc:format>
        <dc:type
           rdf:resource="http://purl.org/dc/dcmitype/StillImage" />
        <dc:title />
      </cc:Work>
    </rdf:RDF>
  </metadata>
  <g
     inkscape:label="Body"
     inkscape:groupmode="layer"
     id="layer1"
     transform="translate(0,-1020.3622)">
    <path
       inkscape:connector-curvature="0"
       style="opacity:0.1;fill:url(#radialGradient3053);fill-opacity:1;stroke:none"
       d="m 16,1043.6955 c -6.551033,0 -12.3519802,0.5221 -16,1.3334 l 0,4 c 3.6480198,0.8112 9.448967,1.3333 16,1.3333 6.551033,0 12.35198,-0.5221 16,-1.3333 l 0,-4 c -3.64802,-0.8113 -9.448967,-1.3334 -16,-1.3334 z"
       id="path3868" />
    <rect
       style="fill:#5d4037;fill-opacity:1;stroke:none"
       id="rect2987"
       width="30"
       height="20.999954"
       x="1"
       y="1027.3622"
       rx="3.2608695"
       ry="3.2812409" />
    <path
       style="opacity:0.2;fill:#ffffff;fill-opacity:1;stroke:none"
       d="M 4.2608696,1027.0289 C 2.4543478,1027.0289 1,1028.5155 1,1030.3622 l 0,1.3333 c 0,-1.8466 1.4543478,-3.3333 3.2608696,-3.3333 l 23.4782604,0 c 1.806522,0 3.26087,1.4867 3.26087,3.3333 l 0,-1.3333 c 0,-1.8467 -1.454348,-3.3333 -3.26087,-3.3333 l -23.4782604,0 z"
       id="rect3797"
       inkscape:connector-curvature="0" />
    <path
       style="fill:#8d6e63;fill-opacity:1;stroke:none"
       d="m 4.2608696,1032.3622 5.2173914,0 c 7.173913,-0.6667 5.869565,-8 10.434782,-8 l 7.826087,0 c 1.806522,0 3.26087,1.4867 3.26087,3.3333 l 0,17.3334 c 0,1.8466 -1.454348,3.3333 -3.26087,3.3333 l -23.4782604,0 C 2.4543478,1048.3622 1,1046.8755 1,1045.0289 l 0,-9.3334 c 0,-2 1.3043478,-3.3333 3.2608696,-3.3333 z"
       id="rect3776"
       inkscape:connector-curvature="0"
       sodipodi:nodetypes="cccsssssscc" />
    <path
       style="opacity:0.15;fill:#000000;fill-opacity:1;stroke:none"
       d="m 1,1043.6955 0,1.3334 c 0,1.8466 1.4543478,3.3333 3.2608696,3.3333 l 23.4782604,0 c 1.806522,0 3.26087,-1.4867 3.26087,-3.3333 l 0,-1.3334 c 0,1.8467 -1.454348,3.6667 -3.26087,3.6667 l -23.4782604,0 C 2.4543478,1047.3622 1,1045.5422 1,1043.6955 z"
       id="path3786"
       inkscape:connector-curvature="0"
       sodipodi:nodetypes="csssscssc" />
    <path
       style="fill:#000000;fill-opacity:0.09803922;fill-rule:evenodd"
       d="M 5 16 C 4.37675 16 4 16.3769 4 17 L 4 21.625 L 4 24 C 4 24.623 4.37675 25 5 25 L 12 25 C 12.62325 25 13 24.623 13 24 L 13 23.3125 L 13 17 C 13 16.3769 12.62325 16 12 16 L 5 16 z M 5 17 L 12 17 L 12 22.125 L 9.90625 19.65625 L 8.65625 20.875 L 6.8125 18.8125 L 5 20.625 L 5 17 z "
       transform="translate(0,1020.3622)"
       id="path3084" />
    <g
       id="g3956"
       style="fill:#fff8e1;fill-opacity:1"
       transform="matrix(0.56249997,0,0,0.56230168,16.611961,458.73811)">
      <g
         transform="translate(-22.421265,1025.4767)"
         id="g8"
         style="fill:#fff8e1;fill-opacity:1">
        <g
           id="g10"
           transform="translate(0,-1036.3622)"
           style="fill:#fff8e1;fill-opacity:1;fill-rule:evenodd">
          <path
             style="fill:#fff8e1;fill-opacity:1"
             inkscape:connector-curvature="0"
             id="path12"
             d="m 0.04535494,1046.7965 c 0.22886095,-0.1684 0.76009966,-0.6684 1.63017986,-1.5329 0.8668571,-0.87 2.0267664,-2.0604 3.528738,-3.6237 0.9828535,1.3976 1.7062383,2.4057 2.2405305,3.0686 0.5219982,0.6546 0.8119968,0.9418 0.8822068,0.8617 0.555492,-0.4971 1.0227091,-0.9197 1.4256542,-1.2898 0.3968387,-0.3701 0.7049827,-0.6739 0.9492797,-0.9225 1.221044,1.5356 2.234512,2.8006 3.122824,3.8695 0.872959,1.0606 1.566074,1.8643 2.103334,2.4554 l -3.324382,-2.762 c -0.274735,0.7071 -0.723383,1.0717 -1.358412,1.1048 -0.653343,0.019 -1.6453591,-0.7733 -2.4451436,-0.9197 -0.7997849,-0.1464 -1.5965161,0.3038 -2.3078612,0.061 -0.7265206,-0.2569 -1.2881156,-1.2733 -1.9688495,-1.5357 -0.6837852,-0.2596 -1.3767284,-0.2596 -2.1033348,0 -0.7905419,0.3867 -1.58116915,0.7761 -2.37476462,1.1655 z" />
          <path
             style="fill:#fff8e1;fill-opacity:1"
             sodipodi:nodetypes="cccccccc"
             inkscape:connector-curvature="0"
             id="path14"
             d="m 0,1046.3622 5,-5 3.2817389,3.6779 2.2182611,-2.1779 5.5,6.5 -2.285714,1.8571 L 2,1051.3622 z" />
        </g>
        <g
           style="fill:#fff8e1;fill-opacity:1"
           id="g16"
           transform="translate(0,-1036.3622)" />
      </g>
      <path
         id="rect3007-9"
         d="m -20.643487,1025.471 c -1.108,0 -1.777778,0.6704 -1.777778,1.7784 l 0,12.4489 c 0,1.108 0.669778,1.7784 1.777778,1.7784 l 12.4444448,0 c 1.108,0 1.7777779,-0.6704 1.7777779,-1.7784 l 0,-12.4489 c 0,-1.108 -0.6697779,-1.7784 -1.7777779,-1.7784 z m 0,1.7784 12.4444448,0 0,12.4489 -12.4444448,0 z"
         style="fill:#fff8e1;fill-opacity:1"
         inkscape:connector-curvature="0"
         sodipodi:nodetypes="sssssssssccccc" />
    </g>
  </g>
</svg>

<!-- Created with Inkscape (http://www.inkscape.org/) -->
<svg xmlns="http://www.w3.org/2000/svg" viewBox="0 0 32 32">
 <defs>
  <radialGradient r="24" cy="40.5" cx="24" gradientTransform="matrix(0.83333334,0,0,0.13888885,-4,1041.4039)" gradientUnits="userSpaceOnUse" id="radialGradient3053">
   <stop style="stop-color:#000;stop-opacity:1"/>
   <stop offset="1" style="stop-color:#000;stop-opacity:0.196"/>
  </radialGradient>
 </defs>
 <g transform="translate(0,-1020.3622)">
  <path d="m 16 1043.7 c -6.551 0 -12.352 0.522 -16 1.333 l 0 4 c 3.648 0.811 9.449 1.333 16 1.333 6.551 0 12.352 -0.522 16 -1.333 l 0 -4 c -3.648 -0.811 -9.449 -1.333 -16 -1.333 z" style="fill:url(#radialGradient3053);opacity:0.1;fill-opacity:1;stroke:none"/>
  <rect width="30" height="21" x="1" y="1027.36" rx="3.261" ry="3.281" style="fill:#5d4037;fill-opacity:1;stroke:none"/>
  <path d="m 4.261 1027.03 c -1.807 0 -3.261 1.487 -3.261 3.333 l 0 1.333 c 0 -1.847 1.454 -3.333 3.261 -3.333 l 23.478 0 c 1.807 0 3.261 1.487 3.261 3.333 l 0 -1.333 c 0 -1.847 -1.454 -3.333 -3.261 -3.333 l -23.478 0 z" style="fill:#fff;opacity:0.2;fill-opacity:1;stroke:none"/>
  <path d="m 4.261 1032.36 5.217 0 c 7.174 -0.667 5.87 -8 10.435 -8 l 7.826 0 c 1.807 0 3.261 1.487 3.261 3.333 l 0 17.333 c 0 1.847 -1.454 3.333 -3.261 3.333 l -23.478 0 c -1.807 0 -3.261 -1.487 -3.261 -3.333 l 0 -9.333 c 0 -2 1.304 -3.333 3.261 -3.333 z" style="fill:#8d6e63;fill-opacity:1;stroke:none"/>
  <path d="m 1 1043.7 0 1.333 c 0 1.847 1.454 3.333 3.261 3.333 l 23.478 0 c 1.807 0 3.261 -1.487 3.261 -3.333 l 0 -1.333 c 0 1.847 -1.454 3.667 -3.261 3.667 l -23.478 0 c -1.807 0 -3.261 -1.82 -3.261 -3.667 z" style="fill:#000;opacity:0.15;fill-opacity:1;stroke:none"/>
  <path d="m 5 16 c -0.623 0 -1 0.377 -1 1 l 0 4.625 l 0 2.375 c 0 0.623 0.377 1 1 1 l 7 0 c 0.623 0 1 -0.377 1 -1 l 0 -0.688 l 0 -6.313 c 0 -0.623 -0.377 -1 -1 -1 l -7 0 z m 0 1 l 7 0 l 0 5.125 l -2.094 -2.469 l -1.25 1.219 l -1.844 -2.063 l -1.813 1.813 l 0 -3.625 z" transform="translate(0,1020.3622)" style="fill:#000;fill-opacity:0.098;fill-rule:evenodd"/>
  <g transform="matrix(0.56249997,0,0,0.56230168,16.611961,458.73811)" style="fill:#fff8e1;fill-opacity:1">
   <g transform="translate(-22.421265,1025.4767)">
    <g transform="translate(0,-1036.3622)" style="fill-rule:evenodd">
     <path d="m 0.045 1046.8 c 0.229 -0.168 0.76 -0.668 1.63 -1.533 0.867 -0.87 2.027 -2.06 3.529 -3.624 0.983 1.398 1.706 2.406 2.241 3.069 0.522 0.655 0.812 0.942 0.882 0.862 0.555 -0.497 1.023 -0.92 1.426 -1.29 0.397 -0.37 0.705 -0.674 0.949 -0.922 1.221 1.536 2.235 2.801 3.123 3.87 0.873 1.061 1.566 1.864 2.103 2.455 l -3.324 -2.762 c -0.275 0.707 -0.723 1.072 -1.358 1.105 -0.653 0.019 -1.645 -0.773 -2.445 -0.92 -0.8 -0.146 -1.597 0.304 -2.308 0.061 -0.727 -0.257 -1.288 -1.273 -1.969 -1.536 -0.684 -0.26 -1.377 -0.26 -2.103 0 -0.791 0.387 -1.581 0.776 -2.375 1.166 z"/>
     <path d="m 0 1046.36 5 -5 3.282 3.678 2.218 -2.178 5.5 6.5 -2.286 1.857 l -11.714 0.143 z"/>
    </g>
   </g>
   <path d="m -20.643 1025.47 c -1.108 0 -1.778 0.67 -1.778 1.778 l 0 12.449 c 0 1.108 0.67 1.778 1.778 1.778 l 12.444 0 c 1.108 0 1.778 -0.67 1.778 -1.778 l 0 -12.449 c 0 -1.108 -0.67 -1.778 -1.778 -1.778 z m 0 1.778 12.444 0 0 12.449 -12.444 0 z"/>
  </g>
 </g>
</svg>
